dist/assets/img/cases/12.svg

<svg width="150" height="35" viewBox="0 0 150 35" fill="none" xmlns="http://www.w3.org/2000/svg">
<path fill-rule="evenodd" clip-rule="evenodd" d="M15.4584 13.0424L19.3677 0H10.7024L6.80474 13.0424H15.4584ZM18.428 13.1321L16.6765 19.0644H30.0281L25.4693 34.4283H34.1578L44.4356 0H35.7354L31.8029 13.1321H18.428ZM0.424683 34.4283H9.08998L13.6024 19.2664H4.94873L0.424683 34.4283ZM103.932 27.8117L104.721 25.1764H95.766L96.7173 21.9577H106.485L107.285 19.2776H93.7591L89.2351 34.4283H103.213L104.025 31.7031H93.8173L94.9656 27.8117H103.932ZM144.033 13.0418L140.101 26.1964C139.811 27.3709 139.265 28.472 138.5 29.4262C137.89 30.0607 137.138 30.5524 136.302 30.8634C135.466 31.1743 134.567 31.2965 133.674 31.2204C131.459 31.2204 130.194 30.6261 129.893 29.4262C129.7 28.3408 129.812 27.2254 130.217 26.1964L134.15 13.0418H128.628L124.684 26.1964C124.03 27.8979 123.924 29.7514 124.383 31.512C125.311 33.8371 128.017 34.9997 132.503 34.9997C136.988 34.9997 140.391 33.8371 142.711 31.512C144.126 29.9965 145.14 28.1728 145.669 26.1964L149.613 13.0418H144.033ZM121.202 19.6707C121.785 19.8783 122.293 20.2444 122.664 20.725V20.7586C122.947 21.1403 123.14 21.5764 123.233 22.037C123.318 22.5703 123.275 23.1155 123.105 23.6295C122.834 24.4104 122.386 25.123 121.794 25.7154C121.083 26.4446 120.168 26.9588 119.161 27.1956C119.476 27.2836 119.768 27.435 120.018 27.6398C120.268 27.8448 120.47 28.0985 120.611 28.3844C120.796 29.1762 120.735 30.0032 120.437 30.7618L120.135 31.7823C119.98 32.2382 119.871 32.7078 119.811 33.1841C119.792 33.3537 119.823 33.525 119.901 33.6779C119.979 33.8309 120.101 33.9592 120.251 34.0477L120.147 34.4289H115.913C115.897 34.16 115.897 33.8905 115.913 33.6215C115.941 33.1774 116.019 32.7375 116.145 32.3094L116.539 30.9076C116.806 29.9433 116.783 29.2927 116.47 28.9675C115.825 28.5614 115.052 28.3903 114.289 28.4853H110.31L108.547 34.4289H104.765L109.289 19.2783H118.337C119.309 19.2497 120.278 19.3825 121.202 19.6707ZM118.506 25.1198C118.798 24.82 119.007 24.454 119.115 24.0556H119.057C119.323 23.136 119.138 22.5193 118.488 22.2165C117.916 22.0025 117.302 21.9107 116.69 21.9473H112.212L111.052 26.0182H115.414C116.1 26.0385 116.785 25.9552 117.444 25.7714C117.849 25.6437 118.214 25.4197 118.506 25.1198ZM36.4057 34.4289L47.5187 19.2783H51.8687L53.829 34.4289H49.6531L49.3863 31.3113H42.6349L40.4425 34.4289H36.4057ZM48.609 22.7436L44.4561 28.7096H49.1427L48.609 22.7436ZM92.1252 19.2774H87.137L78.1586 25.5126L80.0262 19.2774H76.233L71.709 34.4281H75.5021L77.0101 29.3591L79.3069 27.8115L83.0306 34.4281H87.9839L82.7059 25.5126L92.1252 19.2774ZM67.4506 29.2366H71.267C70.4387 30.9046 69.1347 32.3092 67.5086 33.2851C65.7954 34.3313 63.8042 34.8728 61.7781 34.8438C59.1216 34.8438 57.2424 34.1934 56.1404 32.7803C55.0385 31.3673 54.8644 29.4496 55.5953 26.9937C56.2619 24.5098 57.8202 22.3356 59.9916 20.8594C61.8408 19.6214 64.0413 18.9672 66.2906 18.9866C69.3838 18.9866 71.4023 19.824 72.3457 21.4987C72.8447 22.3574 72.9937 23.3652 72.7635 24.3247H68.9122C68.9314 23.7411 68.7654 23.1659 68.4365 22.6762C68.0827 22.3087 67.6437 22.0278 67.1558 21.8561C66.6678 21.6846 66.1446 21.6274 65.6294 21.6893C64.23 21.6732 62.8771 22.1748 61.8477 23.0912C60.6756 24.1515 59.8492 25.5196 59.4696 27.0273C58.9592 28.7207 58.9941 29.9991 59.5973 30.8515C59.9254 31.2821 60.362 31.6245 60.8654 31.8462C61.3689 32.0681 61.9227 32.1618 62.474 32.1186C63.7352 32.1571 64.9691 31.7595 65.9541 30.9973C66.5566 30.5004 67.0631 29.9043 67.4506 29.2366Z" fill="white"/>
</svg>

<svg width="150" height="35" viewBox="0 0 150 35" fill="none" xmlns="http://www.w3.org/2000/svg"><path fill-rule="evenodd" clip-rule="evenodd" d="M15.458 13.042L19.368 0h-8.666L6.805 13.042h8.653zm2.97.09l-1.752 5.932h13.352L25.47 34.428h8.689L44.436 0h-8.7l-3.933 13.132H18.428zM.425 34.428H9.09l4.512-15.162H4.95L.425 34.428zm103.507-6.616l.789-2.636h-8.955l.951-3.218h9.768l.8-2.68H93.759l-4.524 15.15h13.978l.812-2.725H93.817l1.149-3.891h8.966zm40.101-14.77l-3.932 13.154a8.374 8.374 0 01-1.601 3.23 5.902 5.902 0 01-2.198 1.437 6.067 6.067 0 01-2.628.357c-2.215 0-3.48-.594-3.781-1.794a5.96 5.96 0 01.324-3.23l3.933-13.154h-5.522l-3.944 13.154a8.687 8.687 0 00-.301 5.316c.928 2.325 3.634 3.488 8.12 3.488 4.485 0 7.888-1.163 10.208-3.488a12.543 12.543 0 002.958-5.316l3.944-13.154h-5.58zm-22.831 6.629a3.2 3.2 0 011.462 1.054v.034c.283.381.476.817.569 1.278a3.375 3.375 0 01-.128 1.593 5.507 5.507 0 01-1.311 2.085 5.403 5.403 0 01-2.633 1.48c.315.089.607.24.857.445.25.205.452.459.593.744a4.003 4.003 0 01-.174 2.378l-.302 1.02a7.12 7.12 0 00-.324 1.402.872.872 0 00.09.494c.078.153.2.281.35.37l-.104.38h-4.234a6.797 6.797 0 010-.806 5.98 5.98 0 01.232-1.313l.394-1.401c.267-.965.244-1.615-.069-1.94a3.327 3.327 0 00-2.181-.483h-3.979l-1.763 5.944h-3.782l4.524-15.15h9.048a8.76 8.76 0 012.865.392zm-2.696 5.449c.292-.3.501-.666.609-1.064h-.058c.266-.92.081-1.537-.569-1.84a4.39 4.39 0 00-1.798-.269h-4.478l-1.16 4.071h4.362a6.81 6.81 0 002.03-.247c.405-.127.77-.351 1.062-.651zm-82.1 9.309l11.113-15.15h4.35l1.96 15.15h-4.176l-.267-3.118h-6.751l-2.192 3.118h-4.037zm12.203-11.685l-4.153 5.966h4.687l-.534-5.966zm43.516-3.467h-4.988l-8.978 6.236 1.867-6.236h-3.793l-4.524 15.151h3.793l1.508-5.069 2.297-1.548 3.724 6.617h4.953l-5.278-8.915 9.42-6.236zm-24.674 9.96h3.816a9.834 9.834 0 01-3.758 4.048 10.71 10.71 0 01-5.73 1.559c-2.657 0-4.537-.65-5.639-2.064-1.102-1.413-1.276-3.33-.545-5.786.667-2.484 2.225-4.658 4.397-6.135a11.158 11.158 0 016.299-1.872c3.093 0 5.111.837 6.055 2.512.499.858.648 1.866.417 2.826h-3.85a2.79 2.79 0 00-.477-1.649 3.294 3.294 0 00-1.28-.82 3.389 3.389 0 00-1.527-.167 5.594 5.594 0 00-3.781 1.402 7.92 7.92 0 00-2.378 3.936c-.51 1.694-.476 2.972.127 3.825.328.43.765.773 1.268.994a3.344 3.344 0 001.609.273 5.42 5.42 0 003.48-1.122 6.537 6.537 0 001.497-1.76z" fill="#fff"/></svg>
